X:1
T:Christmas Benediction
T:Christmas Benediction
T:Transcribed from Mitch Fewell
T:Carey Dyer
C:Carey Dyer
%%score [ 1 2 3 4 ]
L:1/8
Q:1/4=70
M:4/4
K:C
V:1 treble nm="Soprano" snm="S."
V:2 treble nm="Alto" snm="A."
V:3 treble-8 nm="Tenor" snm="T."
V:4 bass nm="Bass" snm="B."
V:1
 z2 C4 AF | G4 z2 C2 | G_E F4 z2 |"^rit."[Q:1/4=65] C2 D2 ^D2 F2- |[Q:1/4=60] F6 F2 | %5
w: Ooo _ _|_||Ah _ _ _|_ _|
 G4 z2[Q:1/4=70]"^a tempo" CD | E2 EE F2 ED | ((E4 E2)) EF | GG G2 A2 B2 | c4 z2 CC | A2 FE D2 EF | %11
w: * May the|love that we find here at|Christ- mas be the|love we share all year|through. May the|most pre- cious gift of the|
 (G2 E2 C2) DE | F2 GF E2 C2 |[Q:1/4=40] !fermata!D2- !fermata!D2[Q:1/4=70] z _EEF || %14
w: sea _ son be a|heart filled with life a-|new _ And may the|
[K:Eb] G2 (3z GG A2 GF | G4 G z GA | BB B2 c2 d2 | e4 z4 | z8 | z6 EE | c2 AG F2 GA | B4 G z EE | %22
w: hope of His ho- * ly|pro- mise fill _|all that we say and|do.||May the|joy that we find here at|Christ- mas May the|
 E3/2F3/2A F3/2F3/2F | B2 =B2 G- G3- | !fermata!G4 z2 z2 | z8 | z2 E2 G2 F2 | F2 F2 A2 G2 | E6 E2 | %29
w: love that we find here at|Christ- * mas _|_||A- * *|men A- * *|men A-|
"^rit." E8- | E6 E2 | G8 |[Q:1/4=50] !fermata!E4 !fermata!F4 | !fermata!E8 |] %34
w: men|* A-|men|A- *|men|
V:2
 z2 C4 FC | D4 z2 C2 | _EC _D4 z2 | C2 C2 C2 C2- | C6 C2 | D4 z2 CD | C2 CC C2 CC | (D4 C2) CD | %8
w: Ooo _ _|_||Ah _ _ _|_ _|* May the|love that we find here at|Christ- mas be the|
 EE E2 E2 D2 | E4 z4 | z2 C2 D4 | (E2 D2 C2) z2 | A,4 A,4 | (C2 _B,2) z _EEF || %14
w: love we share all year|through.|Ooo _|_ _ _|heart life|new _ And may the|
[K:Eb] E2 (3z EE E2 EE | F4 E z EF | GG G2 G2 F2 | G4 z4 | z8 | z6 EE | A2 FE D2 EF | G4 E z EE | %22
w: hope of His ho- * ly|pro- mise fill _|all that we say and|do.||May the|joy that we find here at|Christ- mas May the|
 E3/2D3/2E E3/2D3/2D | F2 D2 (F E3-) | E4 z2 B,B, | CD E2 F2 D2 | E6 E2 | E4 D4 | (D2 C6) | %29
w: love that we find here at|Christ- * mas _|_ be the|love we share all year|through. A-|men A-|men _|
 =B,6 B,2- | B,6 C2 | E8 | !fermata!C4 !fermata!D4 | =A,!fermata!B,- B,6 |] %34
w: A- men|_ A-|men|A- *|men _ _|
V:3
 z2 c4 Ac | B4 z2 c2 | _BG _A4 z2 | ^D2 F2 G2 A2- | A6 A2 | B4 z2 CD | G2 GG _A2 GF | (G4 G2) z2 | %8
w: Ooo _ _|_||Ah _ _ _|_ _|* May the|love that we find here at|Christ- mas|
 z4 c2 _A2 | (B2 A2) z4 | z2 A2 B4 | (c2 B2 A2) z2 | F4 ^F4 | (G2 F2) z _EEF || %14
w: all year|through _|Ooo _|_ _ _|heart life|new _ And may the|
[K:Eb] B2 (3z BB _c2 BA | B4 B z Bc | ee e2 e2 _c2 | (d2 c2) z2 EE | c2 AG F2 GA | B4 G2 z2 | %20
w: hope of His ho- * ly|pro- mise fill _|all that we say and|do _ May the|love that we find here at|Christ- mas|
 FGAc B4 | B4 B z EE | c3/2B3/2c =B3/2B3/2B | f2 d2 (d c3-) | c4 z4 | z8 | z2 G2 B2 A2 | A4 F4 | %28
w: Joy _ that we find|Christ- mas May the|love that we find here at|Christ- * mas _|_||A- * *|men A-|
 G8 | _G6 F2- | F6 c2 | B8 | !fermata!A4 !fermata!A4 | F!fermata!G- G6 |] %34
w: men|A- men|_ A-|men|A- *|men _ _|
V:4
 z2 C4 F,2 | A,4 z2 C2 | ^D,2 ^C,4 z2 | _A,,2 _B,,2 C,2 C,2 | G,,8- | G,,4 z2 C,D, | %6
w: Ooo _|_||Ah _ _ _|_|* May the|
 C,2 C,C, C,2 C,C, | (C,4 C,2) z2 | z4 E,2 E,2 | A,,4 z4 | z2 F,2 G,,4 | (C,2 _A,,2 =A,,2) z2 | %12
w: love that we find here at|Christ- mas|all year|through.|Ooo _|_ _ _|
 C,4 C,4 | (!fermata!G,,2 !fermata!_B,,2) z _E,E,F, ||[K:Eb] E,2 (3z E,E, E,2 E,E, | E,4 E, z E,2 | %16
w: heart life|new _ And may the|hope of His ho- * ly|pro- mise fill|
 E,F, G,2 C2 G,2 | C,4 z2 E,E, | A,2 F,E, D,2 E,F, | G,4 E,2 z2 | F,2 C,A,, B,,4 | E,4 E, z E,E, | %22
w: all that we say and|do. May the|love that we find here at|Christ- mas|Joy that we find|Christ- mas May the|
 E,3/2B,,3/2A,, A,,3/2A,,3/2A,, | D,2 G,,2 C,- C,3- | !fermata!C,4 z2 B,,B,, | C,D, E,2 F,2 D,2 | %26
w: love that we find here at|Christ- * mas _|_ be the|love we share all year|
 E,6 C,2 | B,,4 B,,2 _C,2 | C,6 B,,2 | A,,8- | A,,6 A,,2 | B,,8 | !fermata!C,4 !fermata!B,,4 | %33
w: through. A-|men A- *|men A-|men|* A-|men|A- *|
 !fermata!G,,8 |] %34
w: men|

